**harm	**harte	**timestamp	**phrase	**leadinstrument	**kern
*M4/4	*M4/4	*	*	*	*
*A:	*A:	*	*	*	*A:
1r;	N	0	.	r	1r;
=1	=1	=1	=1	=1	=1
*>A_intro	*>A_intro	*>A_intro	*>A_intro	*>A_intro	*>A_intro
1I	A:maj	0.895	newline	guitar	1A 1cc# 1ee
=2	=2	=2	=2	=2	=2
*>B_verse	*>B_verse	*>B_verse	*>B_verse	*>B_verse	*>B_verse
2I	A:maj	3.786	newline	voice	2A 2cc# 2ee
2I7d	A:maj7/7	5.317	.	voice	2a 2cc# 2ee 2G#
=3	=3	=3	=3	=3	=3
1vi	F#:min	6.848	.	voice	1F# 1a 1cc#
=4	=4	=4	=4	=4	=4
2ii	B:min	9.91	.	voice	2B 2dd 2ff#
2-VII	G:maj	11.442	.	voice	2G 2b 2dd
=5	=5	=5	=5	=5	=5
1V	E:maj	12.973	.	voice	1E 1g# 1b
=6	=6	=6	=6	=6	=6
2I	A:maj	16.035	newline	voice	2A 2cc# 2ee
2I7d	A:maj7/7	17.55	.	voice	2a 2cc# 2ee 2G#
=7	=7	=7	=7	=7	=7
1vi	F#:min	19.066	.	voice	1F# 1a 1cc#
=8	=8	=8	=8	=8	=8
2ii	B:min	22.096	.	voice	2B 2dd 2ff#
2-VII	G:maj	23.612	.	voice	2G 2b 2dd
=9	=9	=9	=9	=9	=9
1V	E:maj	25.127	.	voice	1E 1g# 1b
=10	=10	=10	=10	=10	=10
1V	E:maj	28.158	.	voice	1E 1g# 1b
=11	=11	=11	=11	=11	=11
*>B2_chorus	*>B2_chorus	*>B2_chorus	*>B2_chorus	*>B2_chorus	*>B2_chorus
2I	A:maj	31.188	newline	voice	2A 2cc# 2ee
2I7d	A:maj7/7	32.629	.	voice	2a 2cc# 2ee 2G#
=12	=12	=12	=12	=12	=12
1vi	F#:min	34.071	.	voice	1F# 1a 1cc#
=13	=13	=13	=13	=13	=13
2ii	B:min	36.953	.	voice	2B 2dd 2ff#
2-VII	G:maj	38.395	.	voice	2G 2b 2dd
=14	=14	=14	=14	=14	=14
1V	E:maj	39.836	.	voice	1E 1g# 1b
=15	=15	=15	=15	=15	=15
2I	A:maj	42.718	newline	voice	2A 2cc# 2ee
2I7d	A:maj7/7	44.205	.	voice	2a 2cc# 2ee 2G#
=16	=16	=16	=16	=16	=16
1vi	F#:min	45.692	.	voice	1F# 1a 1cc#
=17	=17	=17	=17	=17	=17
2ii	B:min	48.665	.	voice	2B 2dd 2ff#
2-VII	G:maj	50.152	.	voice	2G 2b 2dd
=18	=18	=18	=18	=18	=18
*M2/4	*M2/4	*M2/4	*M2/4	*M2/4	*M2/4
2V	E:maj	51.639	.	voice	2E 2g# 2b
=19	=19	=19	=19	=19	=19
*M4/4	*M4/4	*M4/4	*M4/4	*M4/4	*M4/4
1I	A:maj	53.126	.	voice	1A 1cc# 1ee
=20	=20	=20	=20	=20	=20
*>B_verse	*>B_verse	*>B_verse	*>B_verse	*>B_verse	*>B_verse
2I	A:maj	56.099	newline	voice	2A 2cc# 2ee
2I7d	A:maj7/7	57.582	.	voice	2a 2cc# 2ee 2G#
=21	=21	=21	=21	=21	=21
1vi	F#:min	59.065	.	voice	1F# 1a 1cc#
=22	=22	=22	=22	=22	=22
2ii	B:min	62.031	.	voice	2B 2dd 2ff#
2-VII	G:maj	63.514	.	voice	2G 2b 2dd
=23	=23	=23	=23	=23	=23
1V	E:maj	64.997	.	voice	1E 1g# 1b
=24	=24	=24	=24	=24	=24
2I	A:maj	67.962	newline	voice	2A 2cc# 2ee
2I7d	A:maj7/7	69.428	.	voice	2a 2cc# 2ee 2G#
=25	=25	=25	=25	=25	=25
1vi	F#:min	70.894	.	voice	1F# 1a 1cc#
=26	=26	=26	=26	=26	=26
2ii	B:min	73.827	.	voice	2B 2dd 2ff#
2-VII	G:maj	75.293	.	voice	2G 2b 2dd
=27	=27	=27	=27	=27	=27
1V	E:maj	76.759	.	voice	1E 1g# 1b
=28	=28	=28	=28	=28	=28
1V	E:maj	79.691	.	voice	1E 1g# 1b
=29	=29	=29	=29	=29	=29
*>B2_chorus	*>B2_chorus	*>B2_chorus	*>B2_chorus	*>B2_chorus	*>B2_chorus
2I	A:maj	82.623	newline	voice	2A 2cc# 2ee
2I7d	A:maj7/7	84.051	.	voice	2a 2cc# 2ee 2G#
=30	=30	=30	=30	=30	=30
1vi	F#:min	85.48	.	voice	1F# 1a 1cc#
=31	=31	=31	=31	=31	=31
2ii	B:min	88.336	.	voice	2B 2dd 2ff#
2-VII	G:maj	89.765	.	voice	2G 2b 2dd
=32	=32	=32	=32	=32	=32
1V	E:maj	91.193	.	voice	1E 1g# 1b
=33	=33	=33	=33	=33	=33
2I	A:maj	94.05	newline	voice	2A 2cc# 2ee
2I7d	A:maj7/7	95.517	.	voice	2a 2cc# 2ee 2G#
=34	=34	=34	=34	=34	=34
1vi	F#:min	96.985	.	voice	1F# 1a 1cc#
=35	=35	=35	=35	=35	=35
2ii	B:min	99.92	.	voice	2B 2dd 2ff#
2-VII	G:maj	101.388	.	voice	2G 2b 2dd
=36	=36	=36	=36	=36	=36
*M2/4	*M2/4	*M2/4	*M2/4	*M2/4	*M2/4
2V	E:maj	102.855	.	voice	2E 2g# 2b
=37	=37	=37	=37	=37	=37
*M4/4	*M4/4	*M4/4	*M4/4	*M4/4	*M4/4
1I	A:maj	104.323	.	voice	1A 1cc# 1ee
=38	=38	=38	=38	=38	=38
*>B_verse	*>B_verse	*>B_verse	*>B_verse	*>B_verse	*>B_verse
2I	A:maj	107.258	newline	voice	2A 2cc# 2ee
2I7d	A:maj7/7	108.723	.	voice	2a 2cc# 2ee 2G#
=39	=39	=39	=39	=39	=39
1vi	F#:min	110.189	.	voice	1F# 1a 1cc#
=40	=40	=40	=40	=40	=40
2ii	B:min	113.119	.	voice	2B 2dd 2ff#
2-VII	G:maj	114.584	.	voice	2G 2b 2dd
=41	=41	=41	=41	=41	=41
1V	E:maj	116.049	.	voice	1E 1g# 1b
=42	=42	=42	=42	=42	=42
2I	A:maj	118.98	newline	voice	2A 2cc# 2ee
2I7d	A:maj7/7	120.418	.	voice	2a 2cc# 2ee 2G#
=43	=43	=43	=43	=43	=43
1vi	F#:min	121.856	.	voice	1F# 1a 1cc#
=44	=44	=44	=44	=44	=44
2ii	B:min	124.733	.	voice	2B 2dd 2ff#
2-VII	G:maj	126.171	.	voice	2G 2b 2dd
=45	=45	=45	=45	=45	=45
1V	E:maj	127.609	.	voice	1E 1g# 1b
=46	=46	=46	=46	=46	=46
1V	E:maj	130.486	.	voice	1E 1g# 1b
=47	=47	=47	=47	=47	=47
*>B3_chorus	*>B3_chorus	*>B3_chorus	*>B3_chorus	*>B3_chorus	*>B3_chorus
2I	A:maj	133.362	newline	voice	2A 2cc# 2ee
2I7d	A:maj7/7	134.78	.	voice	2a 2cc# 2ee 2G#
=48	=48	=48	=48	=48	=48
1vi	F#:min	136.199	.	voice	1F# 1a 1cc#
=49	=49	=49	=49	=49	=49
2ii	B:min	139.035	.	voice	2B 2dd 2ff#
2-VII	G:maj	140.453	.	voice	2G 2b 2dd
=50	=50	=50	=50	=50	=50
1V	E:maj	141.871	.	voice	1E 1g# 1b
=51	=51	=51	=51	=51	=51
2I	A:maj	144.707	newline	voice	2A 2cc# 2ee
2I7d	A:maj7/7	146.102	.	voice	2a 2cc# 2ee 2G#
=52	=52	=52	=52	=52	=52
1vi	F#:min	147.496	.	voice	1F# 1a 1cc#
=53	=53	=53	=53	=53	=53
2ii	B:min	150.285	.	voice	2B 2dd 2ff#
2-VII	G:maj	151.68	.	voice	2G 2b 2dd
=54	=54	=54	=54	=54	=54
2V	E:maj	153.074	.	voice	2E 2g# 2b
2I	A:maj	154.469	.	voice	2A 2cc# 2ee
=55	=55	=55	=55	=55	=55
*>C_outro	*>C_outro	*>C_outro	*>C_outro	*>C_outro	*>C_outro
2I	A:maj	155.863	newline	voice	2A 2cc# 2ee
2I7d	A:maj7/7	157.243	.	voice	2a 2cc# 2ee 2G#
=56	=56	=56	=56	=56	=56
1vi	F#:min	158.623	.	voice	1F# 1a 1cc#
=57	=57	=57	=57	=57	=57
1IV	D:maj	161.384	.	voice	1D 1f# 1a
=58	=58	=58	=58	=58	=58
1I	A:maj	164.144	.	voice	1A 1cc# 1ee
1r;	N	169.32	.	r	1r;
1r;	N	169.46	.	r	1r;
*-	*-	*-	*-	*-	*-
!!!OTL: Maybe Tomorrow
!!!COC: Badfinger
!!!BillboardChartDate: 1969/03/15
!!!BillboardPeak: 67
!!!BillboardWeeksOnChart: 6
!!!SampleTargetRank: 67
!!!SampleActualRank: 67
!!!SampleID#: 0723
!!!RDF**harmony: **recip + pitch class of root + harmonic quality
!!!RDF**harte: Chris Harte's syntax, used by MIREX
!!!RDF**phrase: newline = linebreak in original McGill transcription
!!!RDF**timestamp: McGill audio timestamp in seconds
!!!RDF**leadinstrument: original McGill primary instrumentation annotation
!!!RDT: 2017/01/12/
!!!ENC: Nathaniel Condit-Schultz
!!!EST: Awating manual error checking and editing.
